Interior Design/images/main/bg.svg

<svg width="496" height="764" fill="none" xmlns="http://www.w3.org/2000/svg"><path d="M483.5 17.5s-208.293 27.401-251 129c-29.334 69.785-7.205 120.148 11.5 193.5 12.177 47.75 27.09 71.995 46 117.5 29.544 71.092 87.66 102.761 81.5 179.5C359.78 782.998 15 753.5 15 753.5" stroke="#B99978"/><path d="M495 25S298.488 52.385 258.197 153.923c-27.674 69.743-6.798 120.075 10.85 193.383 11.488 47.721 25.557 71.952 43.398 117.43 27.872 71.049 82.702 102.699 76.89 179.392C378.278 790.038 53 760.558 53 760.558M17 149c-32 19 63.415 11.284 103.999 7.847 121.495-10.288 181.314-120.668 261-171.347" stroke="#B99978"/></svg>

<svg width="496" height="764" viewBox="0 0 496 764" fill="none" xmlns="http://www.w3.org/2000/svg">
<path d="M483.5 17.5C483.5 17.5 275.207 44.9013 232.5 146.5C203.166 216.285 225.295 266.648 244 340C256.177 387.75 271.09 411.995 290 457.5C319.544 528.592 377.66 560.261 371.5 637C359.78 782.998 15 753.5 15 753.5" stroke="#B99978"/>
<path d="M495 25C495 25 298.488 52.3849 258.197 153.923C230.523 223.666 251.399 273.998 269.047 347.306C280.535 395.027 294.604 419.258 312.445 464.736C340.317 535.785 395.147 567.435 389.335 644.128C378.278 790.038 53 760.558 53 760.558" stroke="#B99978"/>
<path d="M16.9998 149C-14.9999 168 80.4148 160.284 120.999 156.847C242.494 146.559 302.313 36.1791 381.999 -14.4997" stroke="#B99978"/>
</svg>
